lib/logo_tmp/nrk-logo-nrk-klassisk-title-below.svg

<svg width="61" height="41" viewBox="0 0 61 41" fill="none" xmlns="http://www.w3.org/2000/svg">
<path d="M6.10352e-05 17.9966V5.99767H3.93725V17.9966H6.10352e-05ZM9.29387 7.90736L11.5581 17.9966H7.24923L4.54555 5.99767H6.96224C7.51641 5.99048 8.05412 6.18583 8.47456 6.54697C8.89568 6.89296 9.18501 7.37328 9.29387 7.90736ZM12.1496 17.9966V5.99767H16.0868V17.9966H12.1496ZM19.0605 10.5607C18.6363 10.5648 18.2188 10.4538 17.8526 10.2395C17.4913 10.0307 17.1912 9.73054 16.9823 9.36918C16.7678 9.00291 16.6568 8.58534 16.661 8.1609C16.6562 7.73904 16.7673 7.32396 16.9823 6.96101C17.1934 6.60357 17.4932 6.30668 17.8526 6.0991C18.2189 5.88508 18.6363 5.7741 19.0605 5.77797C19.4823 5.77342 19.8972 5.88451 20.2603 6.0991C20.6161 6.30849 20.9127 6.60514 21.1221 6.96101C21.3369 7.32406 21.448 7.73908 21.4434 8.1609C21.4473 8.58531 21.3363 9.00281 21.1221 9.36918C20.9149 9.72896 20.618 10.0289 20.2603 10.2395C19.8972 10.4546 19.4819 10.5657 19.06 10.5607H19.0605ZM22.0517 17.9966V5.99767H25.9892V17.9966H22.0517ZM30.9738 12.5548C30.9849 12.5665 31.0693 12.7045 31.2272 12.9689C31.3851 13.2332 31.5907 13.5713 31.844 13.9829C32.0975 14.3943 32.3649 14.8308 32.6464 15.2926C32.9278 15.7543 33.1927 16.1909 33.4409 16.6024C33.6882 17.0138 33.9698 17.4785 34.2858 17.9966H29.9599C29.6893 17.5572 29.4442 17.16 29.2245 16.8051C29.0049 16.4503 28.7714 16.0672 28.5239 15.6559C28.2759 15.2451 28.0307 14.8451 27.7883 14.456C27.5459 14.067 27.3376 13.7262 27.1633 13.4336C26.9883 13.1409 26.8671 12.9437 26.7997 12.8421C26.6326 12.59 26.5337 12.2989 26.5127 11.9971C26.5295 11.7075 26.6227 11.4276 26.7828 11.1857C26.8504 11.073 26.9743 10.873 27.1546 10.5857C27.3348 10.2984 27.5461 9.95764 27.7883 9.56331C28.0305 9.16898 28.2757 8.76619 28.5239 8.35496C28.7721 7.94373 29.0056 7.55782 29.2245 7.19729C29.4446 6.83713 29.6897 6.43717 29.9599 5.9974H34.2858L30.9397 11.4561C30.8361 11.6181 30.7778 11.8049 30.7707 11.9971C30.7818 12.1989 30.8523 12.3929 30.9732 12.5548H30.9738Z" fill="white"/>
<path d="M9.10862 23.0007H6.99622L2.40533 28.2902H1.77443V23.0007H0V34.9991H1.77443V29.5745H1.83411L6.82754 35.016L9.24415 34.9988L3.5153 29.0503L9.10862 23.0007Z" fill="white"/>
<path d="M13.2574 33.7567C13.1984 33.7632 13.1392 33.7661 13.0799 33.7654C12.9527 33.7692 12.8261 33.7461 12.7084 33.6976C12.606 33.652 12.5182 33.5789 12.455 33.4863C12.3816 33.3769 12.3326 33.253 12.3113 33.123C12.2809 32.9502 12.2668 32.7749 12.2691 32.5994V22.2402L10.5453 22.4937V33.3599C10.5381 33.6447 10.584 33.9283 10.6805 34.1964C10.7616 34.4142 10.8951 34.6086 11.0692 34.7625C11.2427 34.9112 11.4479 35.0181 11.6691 35.0751C11.9147 35.1388 12.1675 35.1701 12.4211 35.1681C12.5566 35.1681 12.6859 35.1625 12.8098 35.1509C12.9338 35.1394 13.0549 35.1227 13.1732 35.1005C13.2915 35.0782 13.3901 35.0554 13.4689 35.0329L13.6379 33.6976C13.5703 33.7092 13.5027 33.7205 13.4351 33.7314C13.3675 33.7423 13.3082 33.7507 13.2574 33.7567Z" fill="white"/>
<path d="M22.6787 33.9345C22.5552 33.9458 22.4307 33.9271 22.316 33.88C22.2012 33.8329 22.0995 33.7587 22.0196 33.6638C21.8629 33.3931 21.7977 33.0791 21.8337 32.7684L21.8675 29.2872C21.8712 28.9222 21.8258 28.5583 21.7323 28.2054C21.6502 27.8961 21.5128 27.6042 21.3268 27.3438C21.1388 27.0891 20.9 26.8761 20.6254 26.7185C20.3066 26.5372 19.9617 26.4061 19.603 26.3299C19.1644 26.2351 18.7166 26.1897 18.268 26.1946C17.9121 26.1945 17.5567 26.2171 17.2037 26.2622C16.87 26.3042 16.5395 26.369 16.2147 26.4563C15.9136 26.5382 15.6175 26.637 15.3275 26.7523L15.1248 28.1888C15.4064 28.087 15.674 28.0025 15.9275 27.9353C16.181 27.868 16.426 27.8117 16.6626 27.7663C16.8944 27.7219 17.1285 27.6908 17.3639 27.6733C17.5946 27.6564 17.8229 27.648 18.0486 27.648C18.3931 27.6406 18.737 27.6804 19.0707 27.7663C19.3143 27.8272 19.5383 27.9494 19.7213 28.1212C19.8843 28.2882 20.0008 28.4949 20.0593 28.7208C20.1315 28.9995 20.1657 29.2866 20.161 29.5745L20.159 29.9987L18.1835 30.1322C17.5079 30.151 16.8422 30.3002 16.2232 30.5715C15.7599 30.7742 15.36 31.0982 15.0656 31.5094C14.8157 31.8753 14.6831 32.3085 14.6854 32.7515C14.6822 33.1671 14.7839 33.5768 14.9811 33.9426C15.1878 34.3187 15.4988 34.6269 15.8767 34.8301C16.3378 35.0699 16.853 35.1864 17.3723 35.1681C17.859 35.1794 18.3434 35.099 18.8003 34.9312C19.1954 34.7766 19.5569 34.547 19.865 34.2553C19.9819 34.143 20.0928 34.0248 20.1973 33.901C20.2302 34.076 20.292 34.2443 20.3804 34.3989C20.531 34.6576 20.7626 34.8595 21.0395 34.9735C21.3455 35.0963 21.673 35.1566 22.0027 35.1507C22.1041 35.1507 22.2027 35.1481 22.2984 35.1422C22.3925 35.1368 22.4858 35.1227 22.5773 35.1002C22.6674 35.0774 22.7488 35.0577 22.8224 35.0411C22.8885 35.026 22.9534 35.0063 23.0167 34.982L23.2025 33.8494C23.1093 33.8816 23.013 33.9043 22.9152 33.9173C22.8368 33.9279 22.7578 33.9336 22.6787 33.9345ZM19.865 33.174C19.6818 33.3187 19.4834 33.4433 19.2735 33.5455C19.0644 33.6474 18.8428 33.7213 18.6144 33.7655C18.3778 33.8111 18.1374 33.8337 17.8965 33.8331C17.621 33.841 17.347 33.7891 17.0935 33.681C16.8873 33.5913 16.7134 33.4409 16.595 33.2498C16.4779 33.0472 16.4194 32.8161 16.426 32.5823C16.4097 32.3006 16.4869 32.0215 16.6457 31.7883C16.8296 31.5735 17.0789 31.4251 17.3554 31.3658C17.7871 31.264 18.2302 31.2186 18.6736 31.2306H20.1534L20.1458 32.9079C20.06 33.0045 19.9661 33.0935 19.865 33.174Z" fill="white"/>
<path d="M30.1478 31.1123C29.9748 30.9288 29.7755 30.7721 29.5564 30.6473C29.3295 30.5176 29.0921 30.4073 28.8466 30.3177C28.6664 30.2614 28.4889 30.2023 28.3143 30.1403C28.1397 30.0783 27.965 30.022 27.7904 29.9713C27.6154 29.9206 27.4464 29.8671 27.2834 29.8108C27.1302 29.7587 26.9806 29.6965 26.8356 29.6246C26.6968 29.5508 26.5639 29.466 26.4385 29.3711C26.3226 29.2839 26.225 29.1747 26.1512 29.0498C26.0766 28.9216 26.0386 28.7755 26.0411 28.6273C26.0367 28.4644 26.0778 28.3035 26.1599 28.1628C26.2481 28.0245 26.3703 27.911 26.5148 27.8333C26.6916 27.7361 26.8827 27.6676 27.0809 27.6302C27.3287 27.5828 27.5806 27.5602 27.8329 27.5629C27.9566 27.5629 28.0921 27.5688 28.2383 27.5798C28.3844 27.5908 28.5453 27.6108 28.7202 27.639C28.8951 27.6671 29.0688 27.7037 29.244 27.7485C29.4192 27.7933 29.5961 27.8445 29.7764 27.9006C29.9433 27.9522 30.1068 28.0143 30.2659 28.0865L30.3847 26.7179C30.1705 26.6278 29.9592 26.5489 29.751 26.4811C29.5428 26.4138 29.3313 26.3574 29.1173 26.3121C28.9082 26.2678 28.6965 26.2367 28.4835 26.2191C28.2746 26.2022 28.0695 26.1938 27.8665 26.1938C27.3997 26.1891 26.9341 26.243 26.4808 26.3543C26.0931 26.4486 25.7245 26.6087 25.391 26.8275C25.0884 27.0275 24.8412 27.3007 24.6725 27.6218C24.4961 27.9756 24.4091 28.3672 24.419 28.7625C24.4139 29.0471 24.4597 29.3304 24.5542 29.599C24.6347 29.8241 24.7549 30.0331 24.9091 30.2158C25.0594 30.3882 25.2329 30.5389 25.4246 30.6636C25.6241 30.7946 25.8364 30.905 26.0583 30.9931C26.1818 31.0382 26.3114 31.0832 26.4472 31.1281C26.5824 31.1734 26.7145 31.2157 26.8444 31.2548C26.9742 31.294 27.1001 31.334 27.2246 31.3731C27.3491 31.4123 27.4693 31.4522 27.5876 31.4914C27.7059 31.5305 27.8214 31.5677 27.9341 31.6015C28.0853 31.655 28.2323 31.7199 28.3737 31.7956C28.4977 31.8614 28.6139 31.9408 28.7202 32.0325C28.8136 32.1143 28.8885 32.2152 28.9399 32.3282C28.9912 32.4453 29.0171 32.5719 29.0156 32.6997C29.0217 32.8247 28.9998 32.9495 28.9515 33.0649C28.9033 33.1804 28.83 33.2837 28.7368 33.3672C28.5276 33.5421 28.2777 33.6614 28.0101 33.7139C27.6967 33.783 27.3766 33.8169 27.0556 33.815C26.8549 33.8137 26.6544 33.7998 26.4554 33.7731C26.2359 33.7449 26.005 33.7055 25.7628 33.6548C25.5206 33.6041 25.2727 33.5421 25.0192 33.4689C24.7655 33.3957 24.5092 33.314 24.2503 33.2238L24.3176 34.6603C24.6103 34.7619 24.8779 34.8435 25.1204 34.9053C25.3628 34.9671 25.5938 35.0207 25.8135 35.0661C26.0251 35.11 26.2396 35.1383 26.4554 35.1507C26.6638 35.1623 26.875 35.168 27.0891 35.1678C27.5606 35.1702 28.0309 35.122 28.492 35.0239C28.8979 34.9416 29.2866 34.7901 29.6412 34.5761C29.9607 34.3809 30.2253 34.1077 30.4101 33.7821C30.6034 33.4244 30.6994 33.0222 30.6884 32.6158C30.6955 32.3193 30.6469 32.0242 30.545 31.7457C30.4541 31.5113 30.3193 31.2963 30.1478 31.1123Z" fill="white"/>
<path d="M38.0733 31.1123C37.9003 30.9289 37.7009 30.7722 37.4818 30.6473C37.2549 30.5175 37.0174 30.4073 36.7718 30.3178C36.5915 30.2614 36.4141 30.2023 36.2395 30.1403C36.0648 30.0783 35.8902 30.022 35.7156 29.9713C35.5409 29.9206 35.3719 29.8671 35.2086 29.8108C35.0554 29.7586 34.9058 29.6965 34.7608 29.6246C34.6219 29.5508 34.4891 29.466 34.3636 29.3711C34.2478 29.2839 34.1503 29.1747 34.0767 29.0498C34.002 28.9217 33.9639 28.7755 33.9665 28.6273C33.962 28.4645 34.0031 28.3036 34.0851 28.1628C34.1731 28.0243 34.2953 27.9108 34.4399 27.8333C34.6168 27.7361 34.8078 27.6676 35.0061 27.6302C35.2538 27.5828 35.5057 27.5603 35.7579 27.5629C35.8818 27.5629 36.017 27.5688 36.1637 27.5798C36.3104 27.5908 36.4704 27.6108 36.6453 27.639C36.8202 27.6671 36.9943 27.7037 37.1689 27.7485C37.3436 27.7933 37.521 27.8446 37.7015 27.9006C37.8685 27.9522 38.0321 28.0143 38.1913 28.0865L38.3099 26.7179C38.0956 26.6278 37.8844 26.5489 37.6761 26.4811C37.468 26.4138 37.2564 26.3574 37.0424 26.3121C36.8333 26.2678 36.6217 26.2367 36.4087 26.2191C36.1999 26.2022 35.9943 26.1938 35.7919 26.1938C35.3251 26.189 34.8595 26.243 34.4062 26.3543C34.0184 26.4485 33.6497 26.6086 33.3162 26.8275C33.0136 27.0275 32.7666 27.3007 32.598 27.6218C32.4213 27.9755 32.3342 28.3672 32.3445 28.7625C32.3393 29.0472 32.3852 29.3305 32.4799 29.599C32.5601 29.8243 32.6803 30.0333 32.8348 30.2158C32.985 30.3883 33.1585 30.539 33.3503 30.6636C33.5498 30.7946 33.7621 30.905 33.984 30.9931C34.1075 31.0382 34.2371 31.0832 34.3726 31.1281C34.5078 31.1734 34.64 31.2157 34.7698 31.2548C34.8996 31.294 35.0258 31.334 35.1497 31.3731C35.2736 31.4123 35.3948 31.4523 35.5131 31.4914C35.6314 31.5306 35.7468 31.5677 35.8598 31.6015C36.0108 31.655 36.1576 31.7199 36.2989 31.7956C36.423 31.8613 36.5393 31.9407 36.6456 32.0325C36.739 32.1142 36.8138 32.2151 36.865 32.3282C36.9168 32.4451 36.9428 32.5718 36.9413 32.6997C36.9474 32.8247 36.9255 32.9495 36.8772 33.065C36.8289 33.1804 36.7555 33.2837 36.6622 33.3672C36.4531 33.5422 36.2031 33.6614 35.9355 33.7139C35.6221 33.783 35.302 33.8169 34.981 33.815C34.7804 33.8138 34.58 33.7998 34.3811 33.7731C34.1614 33.7449 33.9305 33.7055 33.6882 33.6548C33.446 33.6041 33.1981 33.5421 32.9444 33.4689C32.6911 33.3957 32.4349 33.314 32.1758 33.2239L32.2434 34.6603C32.5359 34.7619 32.8035 34.8435 33.0461 34.9053C33.2887 34.9671 33.5196 35.0207 33.7389 35.0661C33.9506 35.11 34.1652 35.1383 34.3811 35.1507C34.5893 35.1623 34.8006 35.168 35.0148 35.1678C35.4861 35.1703 35.9562 35.122 36.4172 35.0239C36.8231 34.9416 37.2118 34.7902 37.5663 34.5761C37.886 34.381 38.1507 34.1078 38.3355 33.7821C38.529 33.4245 38.625 33.0222 38.6141 32.6158C38.6212 32.3193 38.5724 32.0242 38.4704 31.7458C38.3797 31.5112 38.2449 31.2962 38.0733 31.1123Z" fill="white"/>
<path d="M42.1375 22.6711C41.9622 22.5639 41.7602 22.5083 41.5548 22.5106C41.3466 22.509 41.1421 22.5645 40.9633 22.6711C40.7871 22.7743 40.6392 22.9194 40.5327 23.0936C40.4253 23.2688 40.3695 23.4708 40.3718 23.6764C40.3702 23.8845 40.4258 24.0891 40.5327 24.2678C40.636 24.4445 40.7847 24.5904 40.9633 24.6903C41.1439 24.7916 41.3477 24.8441 41.5548 24.8424C41.7591 24.8447 41.9604 24.7922 42.1375 24.6903C42.3114 24.5896 42.4545 24.4436 42.5518 24.2678C42.6532 24.0873 42.7056 23.8834 42.7039 23.6764C42.7063 23.472 42.6538 23.2707 42.5518 23.0936C42.4514 22.9202 42.3089 22.775 42.1375 22.6711Z" fill="white"/>
<path d="M40.6589 34.9988H42.3826V26.2113L40.6589 26.4648V34.9988Z" fill="white"/>
<path d="M50.359 31.1123C50.186 30.9288 49.9867 30.7721 49.7675 30.6473C49.5406 30.5175 49.3031 30.4073 49.0575 30.3178C48.8774 30.2614 48.7 30.2023 48.5254 30.1403C48.3508 30.0783 48.1761 30.022 48.0013 29.9713C47.8267 29.9206 47.6577 29.8671 47.4943 29.8108C47.3412 29.7587 47.1916 29.6965 47.0467 29.6246C46.9077 29.5508 46.7749 29.4661 46.6493 29.3711C46.5335 29.2839 46.436 29.1747 46.3623 29.0498C46.2877 28.9217 46.2496 28.7755 46.2522 28.6273C46.2478 28.4645 46.2888 28.3036 46.3708 28.1628C46.4588 28.0243 46.5811 27.9108 46.7257 27.8333C46.9025 27.7361 47.0936 27.6676 47.2918 27.6302C47.5396 27.5828 47.7915 27.5602 48.0438 27.5629C48.1674 27.5629 48.3029 27.5688 48.4494 27.5798C48.5958 27.5908 48.7561 27.6108 48.931 27.639C49.1059 27.6671 49.28 27.7037 49.4546 27.7485C49.6292 27.7933 49.8067 27.8446 49.9872 27.9006C50.1542 27.9522 50.3178 28.0143 50.477 28.0865L50.5956 26.7179C50.3813 26.6278 50.1701 26.5489 49.9619 26.4811C49.7537 26.4138 49.5422 26.3573 49.3281 26.3121C49.1191 26.2678 48.9074 26.2367 48.6944 26.2191C48.4858 26.2022 48.2802 26.1938 48.0776 26.1938C47.6108 26.189 47.1452 26.2429 46.6918 26.3543C46.3041 26.4485 45.9355 26.6086 45.6019 26.8275C45.2993 27.0275 45.0522 27.3007 44.8837 27.6218C44.707 27.9755 44.62 28.3672 44.6302 28.7625C44.625 29.0472 44.6709 29.3305 44.7657 29.599C44.8458 29.8243 44.966 30.0333 45.1205 30.2158C45.2708 30.3882 45.4443 30.5389 45.636 30.6636C45.8355 30.7946 46.0479 30.905 46.2697 30.9931C46.3933 31.0382 46.5228 31.0832 46.6584 31.1281C46.7939 31.1729 46.9263 31.2152 47.0555 31.2548C47.1846 31.2946 47.3113 31.3341 47.4354 31.3731C47.5596 31.4122 47.6807 31.4516 47.7988 31.4914C47.9171 31.531 48.0326 31.5677 48.1455 31.6015C48.2967 31.655 48.4436 31.7199 48.5849 31.7956C48.7089 31.8613 48.8251 31.9408 48.9313 32.0325C49.0248 32.1142 49.0996 32.2151 49.1507 32.3282C49.2025 32.4451 49.2286 32.5718 49.2271 32.6997C49.2331 32.8247 49.2111 32.9495 49.1629 33.0649C49.1147 33.1804 49.0413 33.2837 48.9482 33.3672C48.7389 33.5421 48.4889 33.6614 48.2213 33.7139C47.9078 33.783 47.5876 33.8169 47.2667 33.815C47.066 33.8138 46.8657 33.7998 46.6668 33.7731C46.4471 33.7449 46.2162 33.7055 45.974 33.6548C45.7317 33.6041 45.4838 33.5421 45.2301 33.4689C44.977 33.3957 44.7208 33.314 44.4614 33.2239L44.529 34.6603C44.8218 34.7619 45.0894 34.8435 45.3318 34.9053C45.5742 34.9671 45.8051 35.0207 46.0246 35.0661C46.2363 35.11 46.451 35.1383 46.6668 35.1507C46.875 35.1623 47.0863 35.168 47.3005 35.1678C47.7718 35.1703 48.242 35.122 48.7029 35.0239C49.1089 34.9416 49.4977 34.7901 49.8523 34.5761C50.1718 34.3809 50.4364 34.1077 50.6212 33.7821C50.8147 33.4244 50.9107 33.0222 50.8998 32.6158C50.9069 32.3193 50.8581 32.0242 50.7561 31.7458C50.6654 31.5112 50.5305 31.2962 50.359 31.1123Z" fill="white"/>
<path d="M58.1509 34.9989H60.3817L56.2824 30.3797L60.2971 26.3803H58.1848L55.293 29.5573H54.6697V22.24L52.946 22.4935V34.9989H54.6697V30.8586H54.6978L58.1509 34.9989Z" fill="white"/>
</svg>

<svg xmlns="http://www.w3.org/2000/svg" viewBox="0 0 61 41"><path fill="#fff" d="M0 17.997v-12h3.937v12H0Zm9.294-10.09 2.264 10.09H7.25l-2.703-12h2.416a2.276 2.276 0 0 1 1.513.55c.42.346.71.826.819 1.36Zm2.856 10.09v-12h3.937v12H12.15Zm6.91-7.436a2.382 2.382 0 0 1-2.4-2.4 2.303 2.303 0 0 1 .322-1.2 2.412 2.412 0 0 1 3.278-.862c.356.21.653.506.862.862.215.363.326.778.321 1.2a2.4 2.4 0 0 1-1.183 2.079 2.302 2.302 0 0 1-1.2.32Zm2.992 7.436v-12h3.937v12h-3.937Zm8.922-5.442c.01.011.095.15.253.414s.364.602.617 1.014a320.187 320.187 0 0 1 1.597 2.62c.247.41.529.875.845 1.394H29.96c-.27-.44-.516-.837-.736-1.192-.22-.355-.453-.738-.7-1.15-.248-.41-.493-.81-.736-1.199-.242-.389-.45-.73-.625-1.022a18.04 18.04 0 0 0-.363-.592 1.75 1.75 0 0 1-.287-.845c.016-.29.11-.57.27-.811.067-.113.191-.313.372-.6a182.106 182.106 0 0 0 1.37-2.23c.247-.412.48-.798.7-1.159l.735-1.2h4.326l-3.346 5.46a1.078 1.078 0 0 0-.17.54c.012.202.082.396.203.558ZM9.109 23H6.996l-4.59 5.29h-.632V23H0v12h1.774v-5.425h.06l4.994 5.441 2.416-.017-5.729-5.949L9.11 23ZM13.257 33.757c-.059.006-.118.01-.177.008a.904.904 0 0 1-.372-.067.604.604 0 0 1-.253-.212.919.919 0 0 1-.144-.363 2.81 2.81 0 0 1-.042-.524V22.24l-1.724.254V33.36c-.007.285.039.568.136.836.08.218.214.413.388.567.174.148.379.255.6.312.246.064.498.095.752.093a4.17 4.17 0 0 0 .752-.068 3.38 3.38 0 0 0 .296-.067l.169-1.335c-.068.011-.135.023-.203.033-.068.011-.127.02-.178.026ZM22.679 33.934a.77.77 0 0 1-.66-.27 1.453 1.453 0 0 1-.185-.896l.034-3.48a4.063 4.063 0 0 0-.136-1.083 2.654 2.654 0 0 0-.405-.861 2.287 2.287 0 0 0-.702-.626 3.568 3.568 0 0 0-1.022-.388 6.009 6.009 0 0 0-1.335-.135c-.356 0-.711.022-1.064.067a7.343 7.343 0 0 0-.99.194c-.3.082-.596.181-.886.296l-.203 1.437a9.622 9.622 0 0 1 1.538-.423c.231-.044.465-.075.7-.093.232-.017.46-.025.686-.025.344-.007.688.032 1.022.118.243.061.467.183.65.355.163.167.28.374.338.6.072.279.107.566.102.854l-.002.424-1.976.133a5.247 5.247 0 0 0-1.96.44 2.808 2.808 0 0 0-1.157.937c-.25.366-.383.8-.38 1.242a2.47 2.47 0 0 0 .295 1.192c.207.376.518.684.896.887.46.24.976.356 1.495.338a3.88 3.88 0 0 0 1.428-.237 3.295 3.295 0 0 0 1.065-.676c.117-.112.228-.23.332-.354.033.175.095.343.183.498.151.259.383.46.66.575.306.122.633.183.963.177.101 0 .2-.003.295-.009.095-.005.188-.02.28-.042.09-.023.17-.042.244-.059.067-.015.131-.035.195-.059l.186-1.133c-.094.033-.19.055-.288.068-.078.01-.157.017-.236.017Zm-2.814-.76a3.25 3.25 0 0 1-.591.371c-.21.102-.431.176-.66.22a3.744 3.744 0 0 1-.718.068 1.908 1.908 0 0 1-.803-.152c-.206-.09-.38-.24-.498-.431a1.263 1.263 0 0 1-.169-.668 1.28 1.28 0 0 1 .22-.794 1.29 1.29 0 0 1 .71-.422 5.138 5.138 0 0 1 1.318-.135h1.48l-.008 1.677a2.25 2.25 0 0 1-.281.266ZM30.148 31.112a2.542 2.542 0 0 0-.592-.465 4.627 4.627 0 0 0-.71-.33 14.62 14.62 0 0 1-.532-.177 9.394 9.394 0 0 0-.524-.169 10.52 10.52 0 0 1-.507-.16 3.662 3.662 0 0 1-.447-.186 2.965 2.965 0 0 1-.397-.254 1.106 1.106 0 0 1-.288-.321.813.813 0 0 1-.11-.423.875.875 0 0 1 .119-.464.96.96 0 0 1 .355-.33 1.91 1.91 0 0 1 .566-.203c.248-.047.5-.07.752-.067a5.45 5.45 0 0 1 .887.076c.175.028.349.065.524.11.175.044.352.096.532.152.167.051.33.113.49.186l.119-1.37a8.12 8.12 0 0 0-.634-.236 6.306 6.306 0 0 0-.634-.169 5.074 5.074 0 0 0-.634-.093 7.64 7.64 0 0 0-.617-.025 5.576 5.576 0 0 0-1.385.16 3.49 3.49 0 0 0-1.09.474c-.303.2-.55.473-.718.794a2.42 2.42 0 0 0-.254 1.14c-.005.285.04.568.135.837.08.225.2.434.355.617.15.172.324.323.516.448.2.13.411.241.633.33a13.373 13.373 0 0 0 .786.26c.13.04.256.08.38.12.125.038.245.078.364.117.118.04.233.077.346.11.151.054.298.119.44.195.124.065.24.145.346.236a.874.874 0 0 1 .22.296.9.9 0 0 1 .076.372.84.84 0 0 1-.28.667c-.208.175-.458.294-.726.347-.313.069-.633.103-.954.101a4.745 4.745 0 0 1-.6-.042 8.961 8.961 0 0 1-.693-.118 10.26 10.26 0 0 1-.744-.186c-.253-.073-.51-.155-.769-.245l.068 1.436c.292.102.56.184.802.245.243.062.474.116.694.161.211.044.426.072.641.085.209.011.42.017.634.017a6.58 6.58 0 0 0 1.403-.144 3.614 3.614 0 0 0 1.15-.448c.319-.195.583-.468.768-.794.193-.358.29-.76.278-1.166a2.367 2.367 0 0 0-.143-.87 1.978 1.978 0 0 0-.397-.634ZM38.073 31.112a2.547 2.547 0 0 0-.591-.465 4.605 4.605 0 0 0-.71-.33 14.75 14.75 0 0 1-.532-.177 9.421 9.421 0 0 0-.524-.169c-.175-.05-.344-.104-.507-.16a3.678 3.678 0 0 1-.448-.186 2.966 2.966 0 0 1-.397-.254 1.104 1.104 0 0 1-.287-.321.81.81 0 0 1-.11-.423.875.875 0 0 1 .118-.464.955.955 0 0 1 .355-.33 1.91 1.91 0 0 1 .566-.203c.248-.047.5-.07.752-.067a5.468 5.468 0 0 1 .887.076c.175.028.35.065.524.11.175.044.352.096.533.152.166.051.33.113.49.186l.118-1.37a8.123 8.123 0 0 0-.634-.236 6.3 6.3 0 0 0-.634-.169 5.073 5.073 0 0 0-.633-.093 7.644 7.644 0 0 0-.617-.025 5.571 5.571 0 0 0-1.386.16 3.486 3.486 0 0 0-1.09.474c-.302.2-.55.473-.718.794a2.412 2.412 0 0 0-.254 1.14c-.005.285.041.569.136.837.08.225.2.434.355.617.15.172.323.323.515.448.2.13.412.241.634.33a13.664 13.664 0 0 0 .786.26 29.712 29.712 0 0 1 .743.237c.118.04.234.077.347.11.15.054.298.119.439.195.124.065.24.145.347.236a.869.869 0 0 1 .295.668.84.84 0 0 1-.279.667c-.209.175-.459.294-.727.347-.313.069-.633.103-.954.101a4.722 4.722 0 0 1-.6-.042 8.96 8.96 0 0 1-.693-.118c-.242-.05-.49-.113-.744-.186-.253-.073-.51-.155-.768-.245l.067 1.436c.293.102.56.184.803.245.243.062.474.116.693.161.212.044.426.072.642.085.208.011.42.017.634.017a6.57 6.57 0 0 0 1.402-.144 3.61 3.61 0 0 0 1.15-.448c.319-.195.584-.468.769-.794.193-.357.289-.76.278-1.166a2.364 2.364 0 0 0-.144-.87 1.97 1.97 0 0 0-.397-.634ZM42.138 22.671a1.094 1.094 0 0 0-.583-.16 1.138 1.138 0 0 0-.592.16 1.238 1.238 0 0 0-.43.423 1.092 1.092 0 0 0-.161.582c-.002.209.054.413.16.592.104.177.253.322.431.422.18.102.385.154.592.152.204.003.405-.05.583-.152.173-.1.317-.246.414-.422.101-.18.154-.385.152-.592a1.14 1.14 0 0 0-.152-.582 1.193 1.193 0 0 0-.414-.423ZM40.659 34.999h1.724V26.21l-1.724.254v8.534ZM50.359 31.112a2.54 2.54 0 0 0-.592-.465 4.605 4.605 0 0 0-.71-.33c-.18-.056-.357-.115-.532-.177a9.347 9.347 0 0 0-.524-.169c-.174-.05-.343-.104-.507-.16a3.66 3.66 0 0 1-.447-.186 2.958 2.958 0 0 1-.398-.254 1.105 1.105 0 0 1-.287-.321.811.811 0 0 1-.11-.423.876.876 0 0 1 .119-.464.955.955 0 0 1 .355-.33 1.91 1.91 0 0 1 .566-.203c.248-.047.5-.07.752-.067a5.465 5.465 0 0 1 .887.076c.175.028.349.065.524.11.174.044.352.096.532.152.167.051.33.113.49.186l.119-1.37a8.136 8.136 0 0 0-.634-.236 6.274 6.274 0 0 0-.634-.169 5.07 5.07 0 0 0-.634-.093 7.637 7.637 0 0 0-.616-.025 5.568 5.568 0 0 0-1.386.16 3.488 3.488 0 0 0-1.09.474c-.303.2-.55.473-.718.794a2.413 2.413 0 0 0-.254 1.14c-.005.285.04.569.136.837.08.225.2.434.355.617.15.172.323.323.515.448.2.13.412.241.634.33a13.674 13.674 0 0 0 .785.26c.13.04.256.08.38.12.125.038.246.078.364.117.118.04.234.077.346.11.152.054.299.119.44.195.124.065.24.145.346.236a.866.866 0 0 1 .296.668.843.843 0 0 1-.279.667 1.62 1.62 0 0 1-.727.347c-.313.069-.633.103-.954.101a4.72 4.72 0 0 1-.6-.042 8.95 8.95 0 0 1-.693-.118 10.28 10.28 0 0 1-.744-.186c-.253-.073-.51-.155-.769-.245l.068 1.436c.293.102.56.184.803.245.242.062.473.116.693.161.211.044.426.072.642.085.208.011.42.017.633.017a6.57 6.57 0 0 0 1.403-.144 3.614 3.614 0 0 0 1.15-.448c.319-.195.583-.468.768-.794.194-.358.29-.76.279-1.166a2.364 2.364 0 0 0-.144-.87 1.971 1.971 0 0 0-.397-.634ZM58.15 34.999h2.232l-4.1-4.62 4.015-3.999h-2.112l-2.892 3.177h-.623V22.24l-1.724.254v12.505h1.724v-4.14h.028l3.453 4.14Z"/></svg>
